X: 12188
T: Eyrecourt
R: jig
M: 6/8
K: Gmajor
A4|:BcB AGE|DB,A, ~A,3|DB,A, A,B,D|~E3 EFG|
BcB AGE|DB,A, ~A,3|DB,A, A,B,D|EGF G2A:|
|:~B3 ~c3|def g2a|bag agf|def g2a|
bag agf|gag fdc|(3Bcd B cAF|AGF G2A:|

